X: 237
T:Sic Deus dilexit mundum / Circumdederunt me
N: Derived from Jos2013-Sic_Deus_dilexit_mundum__Circumdederunt_me.krn
C: Josquin des Prez
%%abc-version 2.0
%%abcx-abcm2ps-target-version 5.9.1 (29 Sep 2008)
%%abc-creator hum2abc beta
%%abcx-conversion-date 2019/02/12 16:15:50
%%abc-edited-by Jesse Rodin
%%abc-edited-by Will Watson 13/09/2011
%%abcx-initial-encoding-date 2011/09/13/
%%humdrum-veritas 2307186065
%%humdrum-veritas-data 4293313976
%%linebreak <none>
%%barnumbers 0
L: 1/4
M: 2/1
Q: 1/2=120
V: 1 clef=treble
V: 2 clef=treble-8
V: 3 clef=treble-8
V: 4 clef=treble-8
V: 5 clef=bass
V: 6 clef=bass
K: F
[V:1] z8 | 
[V:2] c8 | 
[V:3] z8 | 
[V:4] z8 | 
[V:5] z8 | 
[V:6] z8 | 
[V:1] z8 | 
[V:2] f4f4 | 
[V:3] z8 | 
[V:4] F8 | 
[V:5] z8 | 
[V:6] z8 | 
[V:1] F8 | 
[V:2] d4d4 | 
[V:3] z8 | 
[V:4] B8 | 
[V:5] z8 | 
[V:6] z8 | 
[V:1] B8 | 
[V:2] g4g4 | 
[V:3] z8 | 
[V:4] G4G4 | 
[V:5] z8 | 
[V:6] z8 | 
[V:1] G4G4 | 
[V:2] e6dc | 
[V:3] z8 | 
[V:4] c6c2 | 
[V:5] z8 | 
[V:6] z8 | 
[V:1] c4c4 | 
[V:2] c8 | 
[V:3] z8 | 
[V:4] A6GF | 
[V:5] z8 | 
[V:6] C,8 | 
[V:1] A6GF | 
[V:2] z4c4 | 
[V:3] z8 | 
[V:4] F4z4 | 
[V:5] z8 | 
[V:6] F,8 | 
[V:1] F4z2F2 | 
[V:2] f8 | 
[V:3] z8 | 
[V:4] F4B4- | 
[V:5] z8 | 
[V:6] D,4D,4 | 
[V:1] B8 | 
[V:2] d4d4 | 
[V:3] z8 | 
[V:4] B4G4 | 
[V:5] z8 | 
[V:6] G,6G,2 | 
[V:1] G4G4 | 
[V:2] g4g4 | 
[V:3] z8 | 
[V:4] G4c4- | 
[V:5] z8 | 
[V:6] E,6D,C, | 
[V:1] c6c2 | 
[V:2] e4c4 | 
[V:3] z8 | 
[V:4] c2B2A3G/F/ | 
[V:5] z8 | 
[V:6] C,4C,4 | 
[V:1] A3FF4 | 
[V:2] f8 | 
[V:3] z8 | 
[V:4] F4B4 | 
[V:5] z8 | 
[V:6] D,8 | 
[V:1] G8 | 
[V:2] e8 | 
[V:3] c8 | 
[V:4] G8 | 
[V:5] z8 | 
[V:6] C,8 | 
[V:1] z4A4- | 
[V:2] z4f4- | 
[V:3] c4c4 | 
[V:4] F8 | 
[V:5] z8 | 
[V:6] F,,4F,4- | 
[V:1] A2A2A4 | 
[V:2] f2f2f4 | 
[V:3] d8- | 
[V:4] z4F4 | 
[V:5] z8 | 
[V:6] F,2D,2D,4 | 
[V:1] B4B4 | 
[V:2] g4g4 | 
[V:3] d8 | 
[V:4] B8 | 
[V:5] z8 | 
[V:6] G,4G,4 | 
[V:1] c6A2 | 
[V:2] e8 | 
[V:3] c8 | 
[V:4] A8- | 
[V:5] z8 | 
[V:6] A,8 | 
[V:1] A8- | 
[V:2] f4F4 | 
[V:3] d8- | 
[V:4] A4z2A2- | 
[V:5] F,8 | 
[V:6] D,8 | 
[V:1] A8 | 
[V:2] A6B2 | 
[V:3] d8 | 
[V:4] AGFED4 | 
[V:5] F,4F,4 | 
[V:6] z4F,4 | 
[V:1] z4G4- | 
[V:2] c8- | 
[V:3] e8- | 
[V:4] C4E4- | 
[V:5] G,8- | 
[V:6] E,4C,4- | 
[V:1] G2G2G4 | 
[V:2] c8 | 
[V:3] e8 | 
[V:4] E2E2E4 | 
[V:5] G,8 | 
[V:6] C,8 | 
[V:1] A2A4GF | 
[V:2] c4A4 | 
[V:3] z8 | 
[V:4] F4C4 | 
[V:5] F,8 | 
[V:6] F,,8 | 
[V:1] E4D2E2- | 
[V:2] G3AB2G2- | 
[V:3] z8 | 
[V:4] z2C2D2C2 | 
[V:5] G,8- | 
[V:6] C,4B,,2C,2- | 
[V:1] E2DCD4 | 
[V:2] G2c4B2 | 
[V:3] z8 | 
[V:4] E4z4 | 
[V:5] G,8 | 
[V:6] C,2B,,A,,G,,4 | 
[V:1] C4c4- | 
[V:2] c8- | 
[V:3] z8 | 
[V:4] F8 | 
[V:5] A,8- | 
[V:6] z4F,,4- | 
[V:1] c2B2A4 | 
[V:2] c8 | 
[V:3] z8 | 
[V:4] C6D2 | 
[V:5] A,8 | 
[V:6] F,,2G,,2A,,2B,,2 | 
[V:1] G8 | 
[V:2] z4c4- | 
[V:3] e8- | 
[V:4] E2F2G4 | 
[V:5] z8 | 
[V:6] C,8 | 
[V:1] z4c4- | 
[V:2] c2BAG2G2 | 
[V:3] e4e4 | 
[V:4] G6G2 | 
[V:5] z8 | 
[V:6] C,6C,2 | 
[V:1] c2B2A3G | 
[V:2] A4A4 | 
[V:3] f8 | 
[V:4] F8- | 
[V:5] z8 | 
[V:6] F,,4F,,4 | 
[V:1] F2F2B4- | 
[V:2] B8 | 
[V:3] d8- | 
[V:4] F4F4 | 
[V:5] z8 | 
[V:6] B,,8 | 
[V:1] B2A2G2F2 | 
[V:2] B8 | 
[V:3] d8 | 
[V:4] G8 | 
[V:5] z8 | 
[V:6] G,,8 | 
[V:1] E8 | 
[V:2] c6d2 | 
[V:3] c8- | 
[V:4] C8 | 
[V:5] A,8- | 
[V:6] z4C,4 | 
[V:1] z4A4 | 
[V:2] e4f4- | 
[V:3] c8 | 
[V:4] C4F4 | 
[V:5] A,4A,4 | 
[V:6] A,,4F,,4 | 
[V:1] F4F4 | 
[V:2] f2d2d4 | 
[V:3] z8 | 
[V:4] D4F4 | 
[V:5] B,8 | 
[V:6] B,,4D,4 | 
[V:1] G8- | 
[V:2] e6dc | 
[V:3] z8 | 
[V:4] E2C2c3B/A/ | 
[V:5] G,8- | 
[V:6] C,6B,,A,, | 
[V:1] G8 | 
[V:2] d4e4 | 
[V:3] z8 | 
[V:4] B4c4- | 
[V:5] G,8 | 
[V:6] G,,4C,4 | 
[V:1] A4c4 | 
[V:2] f8- | 
[V:3] z8 | 
[V:4] c4A4- | 
[V:5] F,8- | 
[V:6] F,,8 | 
[V:1] c6c2 | 
[V:2] f8 | 
[V:3] z8 | 
[V:4] A2A2A4 | 
[V:5] F,8 | 
[V:6] z4F,4- | 
[V:1] A4G4 | 
[V:2] z8 | 
[V:3] c8 | 
[V:4] F4G4 | 
[V:5] z8 | 
[V:6] F,2E,D,E,4 | 
[V:1] c6BA | 
[V:2] f6f2 | 
[V:3] c4A4 | 
[V:4] A8 | 
[V:5] z8 | 
[V:6] F,8 | 
[V:1] B4c4 | 
[V:2] d4c4 | 
[V:3] G4c4- | 
[V:4] z4A4 | 
[V:5] z8 | 
[V:6] z4F,4 | 
[V:1] z8 | 
[V:2] f4f4- | 
[V:3] c2BAB4 | 
[V:4] A4F4 | 
[V:5] z8 | 
[V:6] D,8 | 
[V:1] G4G4 | 
[V:2] f2ede4 | 
[V:3] c8 | 
[V:4] G8 | 
[V:5] z8 | 
[V:6] C,8 | 
[V:1] A6A2 | 
[V:2] f4c4 | 
[V:3] z8 | 
[V:4] c4A3B | 
[V:5] F,8 | 
[V:6] F,,8 | 
[V:1] A4A4 | 
[V:2] A4A2B2 | 
[V:3] z8 | 
[V:4] c4d4 | 
[V:5] F,4D,4 | 
[V:6] F,,8- | 
[V:1] A8 | 
[V:2] c8 | 
[V:3] z8 | 
[V:4] A8 | 
[V:5] C,4F,4- | 
[V:6] F,,4F,,4 | 
[V:1] z4G4 | 
[V:2] z8 | 
[V:3] z8 | 
[V:4] z8 | 
[V:5] F,2E,D,E,4 | 
[V:6] G,,4G,,4 | 
[V:1] A8 | 
[V:2] f4f4 | 
[V:3] z8 | 
[V:4] z8 | 
[V:5] F,8 | 
[V:6] F,,4F,4 | 
[V:1] B8 | 
[V:2] d4e4 | 
[V:3] z4B4 | 
[V:4] z8 | 
[V:5] z8 | 
[V:6] G,8 | 
[V:1] A4c4- | 
[V:2] f6ed | 
[V:3] c4c4 | 
[V:4] z4A4- | 
[V:5] z8 | 
[V:6] F,6A,2- | 
[V:1] c2BAG4 | 
[V:2] e8 | 
[V:3] c8 | 
[V:4] A2B2c4 | 
[V:5] z8 | 
[V:6] A,2G,F,E,4 | 
[V:1] F4A4 | 
[V:2] z4f4 | 
[V:3] d8- | 
[V:4] F4F4 | 
[V:5] z8 | 
[V:6] D,4D,4 | 
[V:1] B6AG | 
[V:2] g6f2 | 
[V:3] d8 | 
[V:4] D4G4- | 
[V:5] z8 | 
[V:6] G,,4G,,4 | 
[V:1] G4c4- | 
[V:2] e2d2c4 | 
[V:3] c8- | 
[V:4] G2F2E2D2 | 
[V:5] z4E,4 | 
[V:6] C,6B,,2 | 
[V:1] c2B2A4- | 
[V:2] z4c4- | 
[V:3] c8 | 
[V:4] C4z4 | 
[V:5] F,4F,4 | 
[V:6] A,,2G,,2F,,4 | 
[V:1] A2G2F2ED | 
[V:2] c2BAB4 | 
[V:3] z8 | 
[V:4] z8 | 
[V:5] F,8 | 
[V:6] F,4D,4 | 
[V:1] E8- | 
[V:2] c4g4- | 
[V:3] z4B4 | 
[V:4] z8 | 
[V:5] G,8- | 
[V:6] C,4G,,4 | 
[V:1] E8 | 
[V:2] g2e2e2e2 | 
[V:3] c4c4 | 
[V:4] z4G4 | 
[V:5] G,8 | 
[V:6] C,8 | 
[V:1] z4A4 | 
[V:2] f8 | 
[V:3] c8 | 
[V:4] A8 | 
[V:5] F,8- | 
[V:6] F,,4F,4 | 
[V:1] A4A2A2 | 
[V:2] z4f4 | 
[V:3] d8- | 
[V:4] A4A4 | 
[V:5] F,8 | 
[V:6] D,2D,4D,2 | 
[V:1] B6AG | 
[V:2] d4g4- | 
[V:3] d8 | 
[V:4] G8 | 
[V:5] z8 | 
[V:6] G,6F,2 | 
[V:1] G4c4- | 
[V:2] g2f2e2d2 | 
[V:3] c8- | 
[V:4] z4G4 | 
[V:5] z4E,4 | 
[V:6] E,2D,2C,2B,,2 | 
[V:1] c2B2A4- | 
[V:2] c4f4- | 
[V:3] c8- | 
[V:4] A8- | 
[V:5] F,4F,4 | 
[V:6] A,,2G,,2F,,4 | 
[V:1] A2G2F2ED | 
[V:2] f2edc4 | 
[V:3] c8- | 
[V:4] A8 | 
[V:5] F,8 | 
[V:6] z4F,,4 | 
[V:1] E4z2G2 | 
[V:2] z4e4- | 
[V:3] c8- | 
[V:4] G4E4 | 
[V:5] G,8- | 
[V:6] C,4C,4 | 
[V:1] G2G2G4 | 
[V:2] e2e2e4 | 
[V:3] c8- | 
[V:4] z2C4C2- | 
[V:5] G,8 | 
[V:6] C,8 | 
[V:1] A2c3BAG | 
[V:2] f4c4 | 
[V:3] c8- | 
[V:4] C2C2F4 | 
[V:5] F,8- | 
[V:6] F,,8- | 
[V:1] A8 |]  
[V:2] f8 |]  
[V:3] c8 |]  
[V:4] C8 |]  
[V:5] F,8 |]  
[V:6] F,,8 |]  



